dist/img/icons/location.svg

<svg width="42" height="50" viewBox="0 0 42 50" fill="none" xmlns="http://www.w3.org/2000/svg">
<path d="M20.9894 0C9.94122 0 0.94751 8.99371 0.94751 20.0419C0.94751 21.2998 1.06281 22.5681 1.3039 23.805C1.31439 23.8784 1.35631 24.0985 1.44017 24.4759C1.74416 25.8281 2.19489 27.1593 2.78189 28.4277C4.94122 33.5115 9.68965 41.3208 20.1089 49.6855C20.371 49.8952 20.6855 50 20.9999 50C21.3144 50 21.6289 49.8952 21.8909 49.6855C32.2997 41.3208 37.0586 33.5115 39.2179 28.4277C39.8049 27.1593 40.2557 25.8386 40.5597 24.4759C40.6435 24.0985 40.6855 23.8784 40.6959 23.805C40.9265 22.5681 41.0523 21.2998 41.0523 20.0419C41.0314 8.99371 32.0377 0 20.9894 0ZM37.8867 23.3124C37.8867 23.3333 37.8762 23.3543 37.8762 23.3753C37.8657 23.4277 37.8343 23.5849 37.7819 23.826C37.7819 23.8365 37.7819 23.8365 37.7819 23.847C37.5198 25.021 37.132 26.1635 36.6184 27.2642C36.6079 27.2746 36.6079 27.2956 36.5974 27.3061C34.6372 31.9497 30.3395 39.0356 20.9894 46.761C11.6393 39.0356 7.34164 31.9497 5.38147 27.3061C5.37099 27.2956 5.37099 27.2746 5.36051 27.2642C4.85736 26.174 4.46952 25.021 4.19699 23.847C4.19699 23.8365 4.19699 23.8365 4.19699 23.826C4.13409 23.5849 4.11313 23.4277 4.10265 23.3753C4.10265 23.3543 4.09216 23.3333 4.09216 23.3019C3.88252 22.2222 3.7777 21.1321 3.7777 20.0314C3.7777 10.5451 11.5031 2.81971 20.9894 2.81971C30.4758 2.81971 38.2012 10.5451 38.2012 20.0314C38.2012 21.1426 38.0964 22.2432 37.8867 23.3124Z" fill="#DADAE4"/>
<path d="M20.9895 7.53613C13.9769 7.53613 8.26416 13.2489 8.26416 20.2615C8.26416 27.2741 13.9769 32.9869 20.9895 32.9869C28.0021 32.9869 33.7149 27.2741 33.7149 20.2615C33.7149 13.2489 28.0021 7.53613 20.9895 7.53613ZM20.9895 30.1567C15.5283 30.1567 11.0943 25.7122 11.0943 20.2615C11.0943 14.8108 15.5388 10.3663 20.9895 10.3663C26.4403 10.3663 30.8847 14.8108 30.8847 20.2615C30.8847 25.7122 26.4507 30.1567 20.9895 30.1567Z" fill="#DADAE4"/>
</svg>

<svg width="42" height="50" viewBox="0 0 42 50" fill="none" xmlns="http://www.w3.org/2000/svg"><path d="M20.99 0C9.94 0 .947 8.994.947 20.042c0 1.258.115 2.526.356 3.763.01.073.052.294.136.67a19.74 19.74 0 0 0 1.342 3.953C4.942 33.51 9.69 41.32 20.109 49.685a1.423 1.423 0 0 0 1.782 0C32.3 41.322 37.059 33.511 39.218 28.428a19.52 19.52 0 0 0 1.478-4.623c.23-1.237.356-2.505.356-3.763C41.032 8.994 32.038 0 20.99 0zm16.897 23.312c0 .021-.01.042-.01.063-.011.053-.043.21-.095.451v.021a16.647 16.647 0 0 1-1.164 3.417c-.01.01-.01.032-.02.042-1.96 4.644-6.258 11.73-15.609 19.455C11.64 39.036 7.342 31.95 5.381 27.306c-.01-.01-.01-.031-.02-.042a17.752 17.752 0 0 1-1.164-3.417v-.021c-.063-.241-.084-.398-.094-.45 0-.022-.01-.043-.01-.074-.21-1.08-.315-2.17-.315-3.27 0-9.487 7.725-17.212 17.211-17.212 9.487 0 17.212 7.725 17.212 17.211a17.06 17.06 0 0 1-.314 3.281z" fill="#DADAE4"/><path d="M20.99 7.536c-7.013 0-12.726 5.713-12.726 12.726 0 7.012 5.713 12.725 12.726 12.725 7.012 0 12.725-5.713 12.725-12.726 0-7.012-5.713-12.725-12.726-12.725zm0 22.62c-5.462 0-9.896-4.444-9.896-9.894 0-5.451 4.445-9.896 9.896-9.896 5.45 0 9.895 4.445 9.895 9.896 0 5.45-4.434 9.895-9.896 9.895z" fill="#DADAE4"/></svg>
